X: 110
T: MacArthur's Road
T: Reel, D
C: Dave Richardson
L: 1/16
M: C|
K: D
|: f2A2 AAA2 A2B2d2e2| f4f2d2 e2d2B2d2| e4e2f2 e2d2B2d2| e2f2f2d2 e2d2B2d2| 
f2A2 AAA2 A2B2d2e2| f4f2d2 e2d2B2d2| e4e2f2 e2d2B2A2| B2d2d2e2 d4d2e2:| 
|: f2A2 AAA2 f2A2g2A2| f2A2g2A2 f2d2B2d2| e4e2f2 e2d2B2d2| e2f2f2d2 e2d2B2d2| 
[1 f2A2 AAA2 f2A2g2A2| f2A2g2A2 f2d2B2d2| e4e2f2 e2d2B2A2| B2d2d2e2 d4d2e2:|]
[2 f2A2 AAA2 A2B2d2e2| f4f2d2 e2d2B2d2| e4e2f2 e2d2B2A2| B2d2d2e2 d4d2e2|]
D: Kinnon and Betty Beaton, Saturday Night Lively, KB20M98 (as MacArthur's Reel)
